src/cmd/32/extrusionlightingfloater.svg

<svg viewBox="0 0 32 32" xmlns="http://www.w3.org/2000/svg"><path d="m15 4v3h2v-3zm-6.7773438 2.8066406-1.4160156 1.4160156 2.1230469 2.1210938 1.4140625-1.4140625zm15.5546878 0-2.121094 2.1230469 1.414062 1.4140625 2.123047-2.1210938zm-7.777344 1.1933594a8 8 0 0 0 -8 8 8 8 0 0 0 8 8 8 8 0 0 0 8-8 8 8 0 0 0 -8-8zm0 1a7 7 0 0 1 7 7 7 7 0 0 1 -7 7 7 7 0 0 1 -7-7 7 7 0 0 1 7-7zm-12 6v2h3v-2zm21 0v2h3v-2zm-16.0703125 6.65625-2.1230469 2.121094 1.4160156 1.414062 2.1210938-2.121094zm14.1406245 0-1.414062 1.414062 2.121094 2.121094 1.416015-1.414062zm-8.070312 3.34375v3h2v-3z" fill="#232629"/></svg>

<?xml version="1.0" encoding="UTF-8" standalone="no"?>
<svg
   xmlns:dc="http://purl.org/dc/elements/1.1/"
   xmlns:cc="http://creativecommons.org/ns#"
   xmlns:rdf="http://www.w3.org/1999/02/22-rdf-syntax-ns#"
   xmlns:svg="http://www.w3.org/2000/svg"
   xmlns="http://www.w3.org/2000/svg"
   xmlns:sodipodi="http://sodipodi.sourceforge.net/DTD/sodipodi-0.dtd"
   xmlns:inkscape="http://www.inkscape.org/namespaces/inkscape"
   viewBox="0 0 32 32"
   version="1.1"
   id="svg4"
   sodipodi:docname="extrusionlightingfloater.svg"
   inkscape:export-filename="/home/jupiter007/Libreoffice yaru theme fullcolor/build/cmd/32/extrusionlightingfloater.png"
   inkscape:export-xdpi="95"
   inkscape:export-ydpi="95"
   inkscape:version="0.92.5 (2060ec1f9f, 2020-04-08)">
  <metadata
     id="metadata10">
    <rdf:RDF>
      <cc:Work
         rdf:about="">
        <dc:format>image/svg+xml</dc:format>
        <dc:type
           rdf:resource="http://purl.org/dc/dcmitype/StillImage" />
      </cc:Work>
    </rdf:RDF>
  </metadata>
  <defs
     id="defs8" />
  <sodipodi:namedview
     pagecolor="#ffffff"
     bordercolor="#666666"
     borderopacity="1"
     objecttolerance="10"
     gridtolerance="10"
     guidetolerance="10"
     inkscape:pageopacity="0"
     inkscape:pageshadow="2"
     inkscape:window-width="1920"
     inkscape:window-height="1011"
     id="namedview6"
     showgrid="false"
     inkscape:zoom="7.375"
     inkscape:cx="0.88135593"
     inkscape:cy="16"
     inkscape:window-x="0"
     inkscape:window-y="32"
     inkscape:window-maximized="1"
     inkscape:current-layer="svg4" />
  <path
     inkscape:connector-curvature="0"
     id="path815"
     d="m 15,3.9999999 v 3 h 2 v -3 z M 8.2226561,6.8066405 6.8066405,8.2226561 8.9296874,10.34375 10.34375,8.9296874 Z m 15.5546879,0 -2.121094,2.1230469 1.414062,1.4140626 2.123047,-2.1210939 z M 16,7.9999999 A 8,8 0 0 0 7.9999999,16 8,8 0 0 0 16,24 8,8 0 0 0 24,16 8,8 0 0 0 16,7.9999999 Z M 3.9999999,15 v 2 h 3 V 15 Z M 25,15 v 2 h 3 V 15 Z M 8.9296874,21.65625 6.8066405,23.777344 8.2226561,25.191406 10.34375,23.070312 Z m 14.1406246,0 -1.414062,1.414062 2.121094,2.121094 1.416015,-1.414062 z M 15,25 v 3 h 2 v -3 z"
     style="opacity:0.6;fill:#000000;fill-opacity:1;stroke:#000000;stroke-width:2;stroke-linejoin:round;stroke-miterlimit:4;stroke-dasharray:none" />
  <path
     inkscape:connector-curvature="0"
     style="fill:#fee581;fill-opacity:1"
     d="m 15,3.9999999 v 3 h 2 v -3 z M 8.2226561,6.8066405 6.8066405,8.2226561 8.9296874,10.34375 10.34375,8.9296874 Z m 15.5546879,0 -2.121094,2.1230469 1.414062,1.4140626 2.123047,-2.1210939 z M 16,7.9999999 A 8,8 0 0 0 7.9999999,16 8,8 0 0 0 16,24 8,8 0 0 0 24,16 8,8 0 0 0 16,7.9999999 Z M 3.9999999,15 v 2 h 3 V 15 Z M 25,15 v 2 h 3 V 15 Z M 8.9296874,21.65625 6.8066405,23.777344 8.2226561,25.191406 10.34375,23.070312 Z m 14.1406246,0 -1.414062,1.414062 2.121094,2.121094 1.416015,-1.414062 z M 15,25 v 3 h 2 v -3 z"
     id="path2" />
</svg>
